static/client-logos/bell-logo.svg

<svg height="60" viewBox="0 0 47 60" width="47" xmlns="http://www.w3.org/2000/svg" xmlns:xlink="http://www.w3.org/1999/xlink"><mask id="a" fill="#fff"><path d="m45.1923077 0v33.7190083c-2.3991593 6.9777454-11.4903151 16.5770876-22.6620319 24.4628099-11.0407507-7.8857223-20.13177489-17.4850645-22.5302758-24.4628099v-33.7190083z" fill="none"/></mask><mask id="b" fill="#fff"><path d="m.24395848 14.6338364h42.19281822v-14.39245709h-42.19281822zm40.73731102 16.7664951s-.6577431 1.1475529-1.542872 1.1475529h-10.2899045c-2.691283 0-3.7611712-1.0280986-4.9574876-1.8704822l-1.7451834-1.270703c-.267637-.2107939-.3689907-.499728-.3689907-.8407996v-2.8304721c0-2.2565637 2.2976137-2.8889454 3.2206183-3.0912916l15.6838199-2.9851687s-.3600167 1.2448322-1.1911696 1.6930827l-7.2991795 3.6490968c-1.0213229.5077796-1.9894616.7993536-3.7380762.7993536h-3.2724829c-1.0102374 0-1.3994196 0-1.3982319.3294562zm-20.3778935-2.8344319c0 .3410716-.1014856.6300057-.3683308.8407996l-1.7455794 1.270703c-1.1965803.8423836-2.2666005 1.8704822-4.9573555 1.8704822h-10.29016847c-.88539289 0-1.54339989-1.1475529-1.54339989-1.1475529l16.89966796-5.270375c.0007918-.3294562-.3870707-.3294562-1.397836-.3294562h-3.2731427c-1.7486147 0-2.7170173-.291574-3.7376804-.7993536l-7.29931147-3.6490968c-.83102087-.4482505-1.19169739-1.6930827-1.19169739-1.6930827l15.68408376 2.9851687c.9234006.2023462 3.2207503.8347279 3.2207503 3.0912916zm4.3126776-12.3803457-3.3040239 1.8892253c.5010936.6202382 1.6634935 2.1381654 1.9521139 2.646737.0989781.1748916.1745975.3583628.1970325.5316704.0537122.4091804-.2023114.7544758-1.2211269.7544758h-2.3993632c-1.0190795 0-1.2751031-.3452954-1.2217868-.7544758.0221711-.1733076.0980544-.3567788.1970326-.5316704.2887524-.5085716 1.4510202-2.0264988 1.9519818-2.646737l-3.303364-1.8892253h-17.52045915v15.8886053c2.94440316 7.9828447 13.97915155 17.5426178 20.86117095 22.5371261-.2598507-.7848344-.6997098-2.4653777-.8141286-5.0961434-.1119113-2.5424619-.1328947-8.3876693-.1328947-11.8596307 0-.6438651.0056747-1.1509847-.5842353-1.6598203-.2207873-.1909948-.2020474-.4436307-.2020474-.4436307l.9036048-.6280258c.1241847-.0861919.1255044-.2693991.0022435-.3567789l-1.3170697-.8187567c-.4209872-.2792986-.4315449-.7245132-.4315449-.7245132l2.8105846-2.4498024 2.8111126 2.4498024s-.0098979.4452146-.431281.7245132c-.3712342.2444523-.9817317.5803761-1.3173337.8187567-.1231289.0873798-.1214133.270587.0025074.3567789l.9025492.6280258s.0201915.2526359-.2008598.4436307c-.5907018.5088356-.5841033 1.0159552-.5841033 1.6598203 0 3.4719614-.0215112 9.3171688-.1331586 11.8596307-.1150787 2.6307657-.5545418 4.311309-.8143926 5.0961434 6.8817555-4.9945083 17.9172957-14.5542814 20.8619628-22.5371261v-15.8886053zm-14.8056325-10.38817851.0014516-.48705662c0-.36258659-.65286009-.770579-1.47767833-.770579h-1.41393642v1.88130568h1.68685228c.50307314 0 .95151032-.18413116 1.20331087-.62367006zm-1.1205651 2.20746203h-1.76959805v1.97805705h1.7112669c.92973512 0 1.33066275-.5104195 1.33066275-.77044702v-.55648528c-.2240866-.40970834-.71317082-.65112475-1.2723316-.65112475zm3.5406478 1.54036606c-.0011878 1.32191652-1.4252859 2.30566532-2.73443746 2.37139812h-5.16798117v-4.7612754c0-.67752347.2368878-.88673343.53870529-1.18530309l1.43571162-1.43028334h-1.58853394c-.52286878 0-.67859446-.15020879-.89700633-.43439115l-.95375383-1.4956202h6.53440805c1.32023707 0 2.68138517.96460969 2.68138517 2.27504278v1.12630193c-.2235588.3937371-.6458657.86403053-1.0508845 1.09198358.4050188.19719854.8947629.56110507 1.2023871 1.10716285zm9.0060914-5.00546371h-4.7436947v1.88130568h4.1035037v1.73518871h-4.1035037v1.82666031h4.7436947v1.93370713h-7.2071958v-7.96383766c0-.23600467.0869688-.4643537.2478413-.6373974.2017836-.21792154.481166-.48058893.7751972-.70563812h6.1841573zm4.3636184-1.93001135v7.37316605h4.5925879v1.93370713h-7.0645352v-7.96383766c0-.23600467.0877607-.4643537.2482373-.6373974.2016516-.21792154.480902-.48058893.7749332-.70563812zm8.8431073 0v7.37316605h4.5931158v1.93370713h-7.0649311v-7.96383766c0-.23600467.0874967-.4643537.2470495-.6373974.2028393-.21792154.481166-.48058893.776253-.70563812z" fill="none"/></mask><g fill="none" fill-rule="evenodd"><g fill="#fff" mask="url(#a)" transform="translate(.903846 .909091)"><path d="m0 0h47v60h-47z" transform="translate(-.903846 -.909091)"/></g><g fill="#b6132b" mask="url(#b)" transform="translate(2.259615 2.272727)"><path d="m0 0h47v60h-47z" transform="translate(-2.259615 -2.272727)"/></g></g></svg>

<?xml version="1.0" encoding="UTF-8"?>
<svg width="47px" height="60px" viewBox="0 0 47 60" version="1.1" xmlns="http://www.w3.org/2000/svg" xmlns:xlink="http://www.w3.org/1999/xlink">
    <!-- Generator: Sketch 49.2 (51160) - http://www.bohemiancoding.com/sketch -->
    <title>bell-logo</title>
    <desc>Created with Sketch.</desc>
    <defs>
        <path d="M45.1923077,0 L45.1923077,33.7190083 C42.7931484,40.6967537 33.7019926,50.2960959 22.5302758,58.1818182 C11.4895251,50.2960959 2.39850091,40.6967537 0,33.7190083 L0,0 L45.1923077,0 Z" id="path-1"></path>
        <path d="M0.243958475,14.6338364 L42.4367767,14.6338364 L42.4367767,0.24137931 L0.243958475,0.24137931 L0.243958475,14.6338364 Z M40.9812695,31.4003315 C40.9812695,31.4003315 40.3235264,32.5478844 39.4383975,32.5478844 L29.148493,32.5478844 C26.45721,32.5478844 25.3873218,31.5197858 24.1910054,30.6774022 L22.445822,29.4066992 C22.178185,29.1959053 22.0768313,28.9069712 22.0768313,28.5658996 L22.0768313,25.7354275 C22.0768313,23.4788638 24.374445,22.8464821 25.2974496,22.6441359 L40.9812695,19.6589672 C40.9812695,19.6589672 40.6212528,20.9037994 39.7900999,21.3520499 L32.4909204,25.0011467 C31.4695975,25.5089263 30.5014588,25.8005003 28.7528442,25.8005003 L25.4803613,25.8005003 C24.4701239,25.8005003 24.0809417,25.8005003 24.0821294,26.1299565 L40.9812695,31.4003315 Z M20.603376,28.5658996 C20.603376,28.9069712 20.5018904,29.1959053 20.2350452,29.4066992 L18.4894658,30.6774022 C17.2928855,31.5197858 16.2228653,32.5478844 13.5321103,32.5478844 L3.24194183,32.5478844 C2.35654894,32.5478844 1.69854194,31.4003315 1.69854194,31.4003315 L18.5982099,26.1299565 C18.5990017,25.8005003 18.2111392,25.8005003 17.2003739,25.8005003 L13.9272312,25.8005003 C12.1786165,25.8005003 11.2102139,25.5089263 10.1895508,25.0011467 L2.89023933,21.3520499 C2.05921846,20.9037994 1.69854194,19.6589672 1.69854194,19.6589672 L17.3826257,22.6441359 C18.3060263,22.8464821 20.603376,23.4788638 20.603376,25.7354275 L20.603376,28.5658996 Z M24.9160536,16.1855539 L21.6120297,18.0747792 C22.1131233,18.6950174 23.2755232,20.2129446 23.5641436,20.7215162 C23.6631217,20.8964078 23.7387411,21.079879 23.7611761,21.2531866 C23.8148883,21.662367 23.5588647,22.0076624 22.5400492,22.0076624 L20.140686,22.0076624 C19.1216065,22.0076624 18.8655829,21.662367 18.9188992,21.2531866 C18.9410703,21.079879 19.0169536,20.8964078 19.1159318,20.7215162 C19.4046842,20.2129446 20.566952,18.6950174 21.0679136,18.0747792 L17.7645496,16.1855539 L0.244090446,16.1855539 L0.244090446,32.0741592 C3.18849361,40.0570039 14.223242,49.616777 21.1052614,54.6112853 C20.8454107,53.8264509 20.4055516,52.1459076 20.2911328,49.5151419 C20.1792215,46.97268 20.1582381,41.1274726 20.1582381,37.6555112 C20.1582381,37.0116461 20.1639128,36.5045265 19.5740028,35.9956909 C19.3532155,35.8046961 19.3719554,35.5520602 19.3719554,35.5520602 L20.2755602,34.9240344 C20.3997449,34.8378425 20.4010646,34.6546353 20.2778037,34.5672555 L18.960734,33.7484988 C18.5397468,33.4692002 18.5291891,33.0239856 18.5291891,33.0239856 L21.3397737,30.5741832 L24.1508863,33.0239856 C24.1508863,33.0239856 24.1409884,33.4692002 23.7196053,33.7484988 C23.3483711,33.9929511 22.7378736,34.3288749 22.4022716,34.5672555 C22.2791427,34.6546353 22.2808583,34.8378425 22.404779,34.9240344 L23.3073282,35.5520602 C23.3073282,35.5520602 23.3275197,35.8046961 23.1064684,35.9956909 C22.5157666,36.5045265 22.5223651,37.0116461 22.5223651,37.6555112 C22.5223651,41.1274726 22.5008539,46.97268 22.3892065,49.5151419 C22.2741278,52.1459076 21.8346647,53.8264509 21.5748139,54.6112853 C28.4565694,49.616777 39.4921096,40.0570039 42.4367767,32.0741592 L42.4367767,16.1855539 L24.9160536,16.1855539 Z M10.1104211,5.79737539 L10.1118727,5.31031877 C10.1118727,4.94773218 9.45901261,4.53973977 8.63419437,4.53973977 L7.22025795,4.53973977 L7.22025795,6.42104545 L8.90711023,6.42104545 C9.41018337,6.42104545 9.85862055,6.23691429 10.1104211,5.79737539 Z M8.989856,8.00483742 L7.22025795,8.00483742 L7.22025795,9.98289447 L8.93152485,9.98289447 C9.86125997,9.98289447 10.2621876,9.47247497 10.2621876,9.21244745 L10.2621876,8.65596217 C10.038101,8.24625383 9.54901678,8.00483742 8.989856,8.00483742 Z M12.5305038,9.54520348 C12.529316,10.86712 11.1052179,11.8508688 9.79606634,11.9166016 L4.62808517,11.9166016 L4.62808517,7.1553262 C4.62808517,6.47780273 4.86497297,6.26859277 5.16679046,5.97002311 L6.60250208,4.53973977 L5.01396814,4.53973977 C4.49109936,4.53973977 4.33537368,4.38953098 4.11696181,4.10534862 L3.16320798,2.60972842 L9.69761603,2.60972842 C11.0178531,2.60972842 12.3790012,3.57433811 12.3790012,4.8847712 L12.3790012,6.01107313 C12.1554424,6.40481023 11.7331355,6.87510366 11.3281167,7.10305671 C11.7331355,7.30025525 12.2228796,7.66416178 12.5305038,8.21021956 L12.5305038,9.54520348 Z M21.5365952,4.53973977 L16.7929005,4.53973977 L16.7929005,6.42104545 L20.8964042,6.42104545 L20.8964042,8.15623416 L16.7929005,8.15623416 L16.7929005,9.98289447 L21.5365952,9.98289447 L21.5365952,11.9166016 L14.3293994,11.9166016 L14.3293994,3.95276394 C14.3293994,3.71675927 14.4163682,3.48841024 14.5772407,3.31536654 C14.7790243,3.097445 15.0584067,2.83477761 15.3524379,2.60972842 L21.5365952,2.60972842 L21.5365952,4.53973977 Z M25.9002136,2.60972842 L25.9002136,9.98289447 L30.4928015,9.98289447 L30.4928015,11.9166016 L23.4282663,11.9166016 L23.4282663,3.95276394 C23.4282663,3.71675927 23.516027,3.48841024 23.6765036,3.31536654 C23.8781552,3.097445 24.1574056,2.83477761 24.4514368,2.60972842 L25.9002136,2.60972842 Z M34.7433209,2.60972842 L34.7433209,9.98289447 L39.3364367,9.98289447 L39.3364367,11.9166016 L32.2715056,11.9166016 L32.2715056,3.95276394 C32.2715056,3.71675927 32.3590023,3.48841024 32.5185551,3.31536654 C32.7213944,3.097445 32.9997211,2.83477761 33.2948081,2.60972842 L34.7433209,2.60972842 Z" id="path-3"></path>
    </defs>
    <g id="bell-logo" stroke="none" stroke-width="1" fill="none" fill-rule="evenodd">
        <g id="Brand/Badge/Large">
            <g id="↳🎨Container-Color" transform="translate(0.903846, 0.909091)">
                <mask id="mask-2" fill="white">
                    <use xlink:href="#path-1"></use>
                </mask>
                <g id="Mask"></g>
                <g id="Brand/Color/White" mask="url(#mask-2)" fill="#FFFFFF">
                    <g transform="translate(-0.903846, -0.909091)" id="Color">
                        <rect x="0" y="0" width="47" height="60"></rect>
                    </g>
                </g>
            </g>
            <g id="↳🎨Interior-Color" transform="translate(2.259615, 2.272727)">
                <mask id="mask-4" fill="white">
                    <use xlink:href="#path-3"></use>
                </mask>
                <g id="Mask"></g>
                <g id="Brand/Color/Red" mask="url(#mask-4)" fill="#B6132B">
                    <g transform="translate(-2.259615, -2.272727)" id="Color">
                        <rect x="0" y="0" width="47" height="60"></rect>
                    </g>
                </g>
            </g>
        </g>
    </g>
</svg>
